svg/user/user_edit_fill.svg

<?xml version="1.0" encoding="UTF-8"?>
<svg width="24px" height="24px" viewBox="0 0 24 24" version="1.1" xmlns="http://www.w3.org/2000/svg" xmlns:xlink="http://www.w3.org/1999/xlink">
    <title>user_edit_fill</title>
    <g id="Icon" stroke="none" stroke-width="1" fill="none" fill-rule="evenodd">
        <g id="User" transform="translate(-720.000000, -48.000000)" fill-rule="nonzero">
            <g id="user_edit_fill" transform="translate(720.000000, 48.000000)">
                <path d="M24,0 L24,24 L0,24 L0,0 L24,0 Z M12.5935,23.2578 L12.5819,23.2595 L12.5109,23.295 L12.4919,23.2987 L12.4767,23.295 L12.4057,23.2595 C12.3958,23.2564 12.387,23.259 12.3821,23.2649 L12.378,23.2758 L12.3609,23.7031 L12.3659,23.7235 L12.3769,23.7357 L12.4805,23.8097 L12.4953,23.8136 L12.5071,23.8097 L12.6107,23.7357 L12.6233,23.7197 L12.6267,23.7031 L12.6096,23.2758 C12.6076,23.2657 12.601,23.2593 12.5935,23.2578 Z M12.8584,23.1453 L12.8445,23.1473 L12.6598,23.2397 L12.6499,23.2499 L12.6472,23.2611 L12.6651,23.6906 L12.6699,23.7034 L12.6784,23.7105 L12.8793,23.8032 C12.8914,23.8069 12.9022,23.803 12.9078,23.7952 L12.9118,23.7812 L12.8777,23.1665 C12.8753,23.1546 12.8674,23.147 12.8584,23.1453 Z M12.143,23.1473 C12.1332,23.1424 12.1222,23.1453 12.1156,23.1526 L12.1099,23.1665 L12.0758,23.7812 C12.0751,23.7927 12.0828,23.8019 12.0926,23.8046 L12.1083,23.8032 L12.3092,23.7105 L12.3186,23.7024 L12.3225,23.6906 L12.3404,23.2611 L12.3372,23.2485 L12.3278,23.2397 L12.143,23.1473 Z" id="MingCute"></path>
                <path d="M11,2 C8.23858,2 6,4.23858 6,7 C6,9.76142 8.23858,12 11,12 C13.7614,12 16,9.76142 16,7 C16,4.23858 13.7614,2 11,2 Z M11,13 C11.5905,13 12.1671,13.0422 12.7242,13.12 C13.1073,13.1735 13.4253,13.4432 13.5405,13.8125 C13.6557,14.1818 13.5476,14.5845 13.2628,14.8464 C11.8704,16.1271 11,17.9612 11,20 C11,20.2944 11.0181,20.5842 11.0532,20.8683 C11.0888,21.1562 10.9976,21.4453 10.8033,21.6607 C10.609,21.8761 10.3308,21.9965 10.0408,21.9907 C8.03011,21.9505 6.15161,21.775 4.74658,21.3445 C4.04521,21.1296 3.38303,20.8283 2.88088,20.3832 C2.35083,19.9134 2,19.2788 2,18.5 C2,17.713 2.35805,16.9767 2.84397,16.3615 C3.33788,15.7363 4.02143,15.1602 4.82227,14.6715 C6.42467,13.6937 8.60453,13 11,13 Z M21.2122,14.0335 C22.1885,15.0098 22.1885,16.5927 21.2122,17.569 L17.7945,20.9867 C17.5651,21.2162 17.2673,21.3651 16.946,21.411 L14.6375,21.7408 C13.9766,21.8352 13.4106,21.2687 13.505,20.6083 L13.8347,18.2997 C13.8806,17.9784 14.0295,17.6807 14.259,17.4512 L17.6767,14.0335 C18.653,13.0572 20.2359,13.0572 21.2122,14.0335 Z" id="形状" fill="#09244B"></path>
            </g>
        </g>
    </g>
</svg>

<svg xmlns="http://www.w3.org/2000/svg" width="24" height="24"><g fill="none" fill-rule="nonzero"><path d="M24 0v24H0V0h24ZM12.594 23.258l-.012.002-.071.035-.02.004-.014-.004-.071-.036c-.01-.003-.019 0-.024.006l-.004.01-.017.428.005.02.01.013.104.074.015.004.012-.004.104-.074.012-.016.004-.017-.017-.427c-.002-.01-.009-.017-.016-.018Zm.264-.113-.014.002-.184.093-.01.01-.003.011.018.43.005.012.008.008.201.092c.012.004.023 0 .029-.008l.004-.014-.034-.614c-.003-.012-.01-.02-.02-.022Zm-.715.002a.023.023 0 0 0-.027.006l-.006.014-.034.614c0 .012.007.02.017.024l.015-.002.201-.093.01-.008.003-.011.018-.43-.003-.012-.01-.01-.184-.092Z"/><path fill="#09244B" d="M11 2a5 5 0 1 0 0 10 5 5 0 0 0 0-10Zm0 11c.59 0 1.167.042 1.724.12a1 1 0 0 1 .539 1.726 6.979 6.979 0 0 0-2.21 6.022 1 1 0 0 1-1.012 1.123c-2.01-.04-3.89-.216-5.294-.646-.702-.215-1.364-.517-1.866-.962C2.35 19.913 2 19.28 2 18.5c0-.787.358-1.523.844-2.139.494-.625 1.177-1.2 1.978-1.69C6.425 13.695 8.605 13 11 13Zm10.212 1.034a2.5 2.5 0 0 1 0 3.535l-3.418 3.418a1.5 1.5 0 0 1-.848.424l-2.309.33a1.001 1.001 0 0 1-1.132-1.133l.33-2.308a1.5 1.5 0 0 1 .424-.849l3.418-3.418a2.5 2.5 0 0 1 3.535 0Z"/></g></svg>
